static/fa/svgs/regular/bell-slash.svg

<svg xmlns="http://www.w3.org/2000/svg" viewBox="0 0 640 512"><!--! Font Awesome Free 6.1.1 by @fontawesome - https://fontawesome.com License - https://fontawesome.com/license/free (Icons: CC BY 4.0, Fonts: SIL OFL 1.1, Code: MIT License) Copyright 2022 Fonticons, Inc.--><path d="M183.6 118.6c22.9-36.02 60.5-61.76 104.4-68.72V32c0-17.67 14.3-32 32-32s32 14.33 32 32v17.88C424.5 61.39 480 124.2 480 200v33.4c0 45.4 15.5 89.5 43.8 125l14.9 18.6c4.4 6.5 6.7 15.2 3.9 23l88.2 69.1c10.4 8.2 12.3 23.3 4.1 33.7-8.2 10.4-23.3 12.3-33.7 4.1L9.196 42.89C-1.236 34.71-3.065 19.63 5.112 9.196 13.29-1.236 28.37-3.065 38.81 5.112L183.6 118.6zm38.1 29.8 229 178.7c-12.3-28.9-18.7-61-18.7-93.7V200c0-57.4-46.6-104-104-104h-16c-38.7 0-72.4 21.1-90.3 52.4zm-61.7 85v-11.3l46.7 36.8c-4 38.8-17.2 76.3-38.4 109.1h176.9l61 48H120c-9.2 0-17.6-5.3-21.63-13.6-4-8.3-2.87-18.2 2.93-25.4l14.9-18.6c28.3-35.5 43.8-79.6 43.8-125zM384 448c0 16.1-6.7 33.3-18.7 45.3S336.1 512 320 512c-17 0-33.3-6.7-45.3-18.7S256 464.1 256 448h128z"/></svg>

<svg xmlns="http://www.w3.org/2000/svg" viewBox="0 0 640 512"><!--! Font Awesome Free 6.1.1 by @fontawesome - https://fontawesome.com License - https://fontawesome.com/license/free (Icons: CC BY 4.0, Fonts: SIL OFL 1.1, Code: MIT License) Copyright 2022 Fonticons, Inc. --><path d="M183.6 118.6C206.5 82.58 244.1 56.84 288 49.88V32C288 14.33 302.3 .0003 320 .0003C337.7 .0003 352 14.33 352 32V49.88C424.5 61.39 480 124.2 480 200V233.4C480 278.8 495.5 322.9 523.8 358.4L538.7 377C543.1 383.5 545.4 392.2 542.6 400L630.8 469.1C641.2 477.3 643.1 492.4 634.9 502.8C626.7 513.2 611.6 515.1 601.2 506.9L9.196 42.89C-1.236 34.71-3.065 19.63 5.112 9.196C13.29-1.236 28.37-3.065 38.81 5.112L183.6 118.6zM221.7 148.4L450.7 327.1C438.4 298.2 432 266.1 432 233.4V200C432 142.6 385.4 96 328 96H312C273.3 96 239.6 117.1 221.7 148.4V148.4zM160 233.4V222.1L206.7 258.9C202.7 297.7 189.5 335.2 168.3 368H345.2L406.2 416H120C110.8 416 102.4 410.7 98.37 402.4C94.37 394.1 95.5 384.2 101.3 377L116.2 358.4C144.5 322.9 160 278.8 160 233.4V233.4zM384 448C384 464.1 377.3 481.3 365.3 493.3C353.3 505.3 336.1 512 320 512C303 512 286.7 505.3 274.7 493.3C262.7 481.3 256 464.1 256 448H384z"/></svg>
